source/img/cup.svg

<svg width="45" height="49" viewBox="0 0 45 49" fill="none" xmlns="http://www.w3.org/2000/svg">
<g filter="url(#filter0_d)">
<path d="M37.1079 16.3785H31.231V15.5672C31.231 15.0797 30.8358 14.6844 30.3483 14.6844H14.2996C13.8121 14.6844 13.4169 15.0797 13.4169 15.5672V16.3785H7.53994C7.05243 16.3785 6.65723 16.7737 6.65723 17.2612V21.2586C6.65723 22.3514 7.08286 23.379 7.8557 24.1518C8.62854 24.9246 9.65602 25.3502 10.7489 25.3502H13.6429C14.4881 29.0243 17.6123 31.8375 21.4413 32.216V36.1895H19.0773C17.7118 36.1895 16.6009 37.3004 16.6009 38.6659V40.1173C16.6009 40.6048 16.9961 41 17.4836 41H27.1644C27.6519 41 28.0471 40.6048 28.0471 40.1173V38.6659C28.0471 37.3004 26.9362 36.1895 25.5708 36.1895H23.2068V32.2159C27.0358 31.8374 30.1599 29.0243 31.0051 25.3502H33.899C36.1552 25.3502 37.9908 23.5147 37.9908 21.2585V17.2612C37.9906 16.7737 37.5954 16.3785 37.1079 16.3785ZM26.2816 38.6659V39.2346H18.3662V38.6659C18.3662 38.2738 18.6852 37.955 19.0772 37.955H25.5707C25.9627 37.9549 26.2816 38.2738 26.2816 38.6659ZM13.4183 23.5848H10.7488C10.1275 23.5848 9.54328 23.3429 9.10403 22.9035C8.66452 22.4641 8.42265 21.8799 8.42265 21.2586V18.144H13.4184V23.5848H13.4183ZM29.4655 23.3525C29.4655 27.2904 26.2618 30.4942 22.3239 30.4942C18.386 30.4942 15.1823 27.2904 15.1823 23.3525V16.4499H29.4655V23.3525ZM31.2295 18.1439H36.2253V21.2585C36.2253 22.5412 35.1817 23.5848 33.899 23.5848H31.2295V18.1439Z" fill="#37373F"/>
<path d="M18.5794 8.12971L17.9172 11.6248C17.8535 11.9604 17.9892 12.3025 18.2656 12.5033C18.542 12.704 18.9092 12.7274 19.2088 12.5632L22.3281 10.8533L25.4476 12.5632C25.5803 12.6359 25.7263 12.6718 25.8718 12.6718C26.0548 12.6718 26.2369 12.6151 26.3908 12.5033C26.667 12.3025 26.8027 11.9604 26.7393 11.6248L26.0771 8.12971L28.667 5.6914C28.9157 5.45727 29.007 5.10074 28.9015 4.7759C28.7959 4.45106 28.5125 4.21626 28.1737 4.17305L24.6449 3.72287L23.1263 0.505921C22.9806 0.197055 22.6697 0 22.3281 0C21.9865 0 21.6757 0.197055 21.5299 0.505921L20.0113 3.72287L16.4825 4.17305C16.1437 4.21626 15.8603 4.45106 15.7548 4.7759C15.6493 5.10066 15.7406 5.45736 15.9892 5.6914L18.5794 8.12971ZM20.7148 5.41288C21.0138 5.37472 21.2726 5.18666 21.4013 4.91402L22.3281 2.95053L23.255 4.91402C23.3836 5.18657 23.6424 5.37463 23.9415 5.41288L26.0955 5.6877L24.5146 7.17596C24.2951 7.3826 24.1963 7.68684 24.2524 7.98301L24.6565 10.1165L22.7524 9.07278C22.6203 9.00032 22.4741 8.96408 22.3281 8.96408C22.1821 8.96408 22.036 9.00032 21.9038 9.07278L19.9999 10.1164L20.4041 7.98301C20.4603 7.68692 20.3613 7.38251 20.1419 7.17596L18.5609 5.6877L20.7148 5.41288Z" fill="#FC9B09"/>
<path d="M40.6023 7.92533C40.4967 7.6005 40.2133 7.36569 39.8745 7.32248L37.33 6.99781L36.235 4.67804C36.0892 4.36917 35.7782 4.17212 35.4368 4.17212C35.0953 4.17212 34.7843 4.36917 34.6385 4.67804L33.5435 6.99781L30.9989 7.32248C30.6601 7.36569 30.3767 7.6005 30.2711 7.92533C30.1656 8.25009 30.2569 8.60671 30.5056 8.84084L32.3734 10.599L31.8957 13.1193C31.8321 13.4548 31.9678 13.7971 32.2442 13.9977C32.3981 14.1095 32.5802 14.1664 32.7631 14.1664C32.9086 14.1664 33.0547 14.1304 33.1874 14.0577L35.4368 12.8247L37.6862 14.0577C37.9858 14.2219 38.3531 14.1986 38.6294 13.9977C38.9057 13.797 39.0413 13.4549 38.9779 13.1193L38.5004 10.599L40.368 8.84084C40.6165 8.60671 40.7078 8.25017 40.6023 7.92533ZM36.9379 9.64528C36.7185 9.85184 36.6196 10.1562 36.6757 10.4523L36.8952 11.611L35.861 11.0442C35.7288 10.9717 35.5827 10.9355 35.4367 10.9355C35.2906 10.9355 35.1445 10.9717 35.0124 11.0442L33.9784 11.6109L34.1979 10.4523C34.2541 10.1562 34.1551 9.85184 33.9357 9.6452L33.0771 8.83705L34.2468 8.68783C34.5458 8.64975 34.8047 8.46169 34.9333 8.18906L35.4366 7.12274L35.9399 8.18906C36.0685 8.46161 36.3274 8.64966 36.6264 8.68783L37.7962 8.83705L36.9379 9.64528Z" fill="#FC9B09"/>
<path d="M9.20877 12.8248L11.4583 14.0578C11.7578 14.222 12.1251 14.1987 12.4014 13.9978C12.6777 13.7971 12.8133 13.455 12.7499 13.1194L12.2724 10.5991L14.14 8.84092C14.3887 8.60679 14.48 8.25026 14.3745 7.92542C14.2689 7.60058 13.9855 7.36578 13.6467 7.32257L11.1021 6.99781L10.007 4.67804C9.86122 4.36917 9.55025 4.17212 9.20877 4.17212C8.86728 4.17212 8.55632 4.36917 8.41054 4.67804L7.31556 6.99781L4.77099 7.32248C4.43219 7.36569 4.1488 7.6005 4.04321 7.92533C3.93771 8.25009 4.029 8.60671 4.27768 8.84084L6.1455 10.599L5.66783 13.1193C5.60419 13.4548 5.73987 13.7971 6.01629 13.9977C6.17022 14.1095 6.35231 14.1664 6.53524 14.1664C6.68076 14.1664 6.82679 14.1304 6.95944 14.0577L9.20877 12.8248ZM8.01895 8.68783C8.31798 8.64975 8.57683 8.46169 8.70545 8.18906L9.20877 7.12274L9.71208 8.18906C9.84071 8.4616 10.0996 8.64966 10.3986 8.68783L11.5684 8.83705L10.7099 9.64528C10.4905 9.85184 10.3916 10.1562 10.4477 10.4523L10.6672 11.611L9.63297 11.0442C9.50082 10.9717 9.35471 10.9355 9.20868 10.9355C9.06266 10.9355 8.91655 10.9717 8.78439 11.0442L7.75044 11.6109L7.96994 10.4523C8.0261 10.1562 7.92715 9.85184 7.70773 9.6452L6.84915 8.83705L8.01895 8.68783Z" fill="#FC9B09"/>
</g>
<defs>
<filter id="filter0_d" x="0" y="0" width="44.6455" height="49" filterUnits="userSpaceOnUse" color-interpolation-filters="sRGB">
<feFlood flood-opacity="0" result="BackgroundImageFix"/>
<feColorMatrix in="SourceAlpha" type="matrix" values="0 0 0 0 0 0 0 0 0 0 0 0 0 0 0 0 0 0 127 0"/>
<feOffset dy="4"/>
<feGaussianBlur stdDeviation="2"/>
<feColorMatrix type="matrix" values="0 0 0 0 0 0 0 0 0 0 0 0 0 0 0 0 0 0 0.25 0"/>
<feBlend mode="normal" in2="BackgroundImageFix" result="effect1_dropShadow"/>
<feBlend mode="normal" in="SourceGraphic" in2="effect1_dropShadow" result="shape"/>
</filter>
</defs>
</svg>

<svg width="45" height="49" fill="none" xmlns="http://www.w3.org/2000/svg"><g filter="url(#filter0_d)"><path d="M37.108 16.378H31.23v-.81a.883.883 0 00-.883-.884H14.3a.883.883 0 00-.883.883v.811H7.54a.883.883 0 00-.883.883v3.998c0 1.092.426 2.12 1.199 2.893a4.065 4.065 0 002.893 1.198h2.894c.845 3.674 3.97 6.487 7.798 6.866v3.974h-2.364a2.48 2.48 0 00-2.476 2.476v1.451c0 .488.395.883.883.883h9.68a.883.883 0 00.883-.883v-1.451a2.48 2.48 0 00-2.476-2.476h-2.364v-3.974c3.829-.379 6.953-3.192 7.798-6.866H33.9a4.096 4.096 0 004.092-4.091V17.26a.883.883 0 00-.883-.883zM26.282 38.666v.569h-7.916v-.57c0-.391.32-.71.711-.71h6.494a.71.71 0 01.71.71zM13.418 23.585h-2.67a2.31 2.31 0 01-1.644-.681 2.31 2.31 0 01-.681-1.645v-3.115h4.995v5.44zm16.047-.233c0 3.938-3.203 7.142-7.141 7.142s-7.142-3.204-7.142-7.142V16.45h14.283v6.902zm1.765-5.208h4.995v3.115a2.329 2.329 0 01-2.326 2.326h-2.67v-5.441z" fill="#37373F"/><path d="M18.58 8.13l-.663 3.495a.882.882 0 001.292.938l3.12-1.71 3.119 1.71a.882.882 0 001.291-.938l-.662-3.495 2.59-2.439a.883.883 0 00-.493-1.518l-3.53-.45L23.127.506a.882.882 0 00-1.596 0L20.01 3.723l-3.528.45a.882.882 0 00-.494 1.518l2.59 2.439zm2.135-2.717a.883.883 0 00.686-.499l.927-1.963.927 1.963c.129.273.387.46.687.499l2.154.275-1.581 1.488a.883.883 0 00-.263.807l.405 2.134-1.905-1.044a.882.882 0 00-.848 0L20 10.116l.404-2.133a.883.883 0 00-.262-.807L18.56 5.688l2.154-.275zm19.887 2.512a.883.883 0 00-.727-.603l-2.545-.324-1.095-2.32a.883.883 0 00-1.596 0l-1.096 2.32L31 7.322a.883.883 0 00-.493 1.519l1.867 1.758-.477 2.52a.882.882 0 001.291.939l2.25-1.233 2.25 1.233a.882.882 0 001.29-.939L38.5 10.6l1.868-1.758a.883.883 0 00.234-.916zm-3.664 1.72a.883.883 0 00-.262.807l.22 1.159-1.035-.567a.882.882 0 00-.849 0l-1.034.567.22-1.159a.883.883 0 00-.262-.807l-.859-.808 1.17-.15a.882.882 0 00.686-.498l.504-1.066.503 1.066c.129.273.387.46.686.499l1.17.149-.858.808zm-27.729 3.18l2.25 1.233a.882.882 0 001.29-.939l-.477-2.52 1.868-1.758a.883.883 0 00-.493-1.518l-2.545-.325-1.095-2.32a.883.883 0 00-1.596 0l-1.095 2.32-2.545.324a.883.883 0 00-.493 1.519l1.868 1.758-.478 2.52a.882.882 0 001.291.939l2.25-1.233zm-1.19-4.137a.882.882 0 00.686-.499l.504-1.066.503 1.066c.129.273.388.46.687.499l1.17.149-.86.808a.883.883 0 00-.261.807l.22 1.159-1.035-.567a.882.882 0 00-.849 0l-1.034.567.22-1.159a.883.883 0 00-.262-.807l-.859-.808 1.17-.15z" fill="#FC9B09"/></g><defs><filter id="filter0_d" x="0" y="0" width="44.645" height="49" filterUnits="userSpaceOnUse" color-interpolation-filters="sRGB"><feFlood flood-opacity="0" result="BackgroundImageFix"/><feColorMatrix in="SourceAlpha" values="0 0 0 0 0 0 0 0 0 0 0 0 0 0 0 0 0 0 127 0"/><feOffset dy="4"/><feGaussianBlur stdDeviation="2"/><feColorMatrix values="0 0 0 0 0 0 0 0 0 0 0 0 0 0 0 0 0 0 0.25 0"/><feBlend in2="BackgroundImageFix" result="effect1_dropShadow"/><feBlend in="SourceGraphic" in2="effect1_dropShadow" result="shape"/></filter></defs></svg>
